X: 5906
T: Cambridge, The
R: hornpipe
M: 4/4
K: Amajor
E2|:A2 AG Aceg|a2 ag aece|fdBA GABc|dBcA BEGB|
A2 AG Aceg|a2 ag aece|fdBA GABc|1 A2 c2 A2 EG:|2 A2 c2 A2 cd||
|:e2 a2 ecAc|B2 b2 Bcde|gbeg begb|ac'ea c'eac'|
e'2 c'2 a2 e2|fadf ecAc|Bagf edcB|1 Aaec A2 cd:|2 A2 c2 A4||

